!!!!SEGMENT: pl-wtm--a-43-196-99--001-007_kazuro-stanislaw--25-piesni-dzieciecych-z-fortepianem-op-49-sady-kwitnace.krn
!!!cenid: 19xx:203
!!!COM: Kazuro, Stanisław
!!!COM-rismID: pe50047136
!!!CDT: 1881/08/02-1961/11/30
!!!CNT: Polish
!!!GTL: 25 Pieśni dziecięcych z fortepianem, op. 49
!!!OTL: Sady kwitnące
!!!OMV: 007
!!!PDT: 1950
!!!AGN:
!!!YEC: Copyright 2022 Narodowy Instytut Fryderyka Chopina (https://polishscores.org)
!!!YEM: License CC-BY-4.0 (https://creativecommons.org/licenses/by/4.0)
!!!SMS-siglum: PL-Wtm
!!!SMS-shelfmark: A-43.196/99
!!!SMS-variant:
!!!SMS-altvar:
!!!SMS-shelfwork: 001-007 G
!!!NIFC-rismSourceID: 1001164821
!!!NIFC-rismChildID: 1001164821
!!!NIFC-islandoraID: pl-wtm:43198
!!!URL-pdf-islandora: https://repozytorium.nifc.pl/islandora/object/pl-wtm:43198/datastream/PDF/view
!!!URL-scan: https://polish.musicsources.pl/pl/lokalizacje/galeria/druki-muzyczne/22428/9 @EN{Scan on Polish Music Sources Website} @PL{Skany w portalu Dziedzictwo Muzyki Polskiej w otwartym dostępie}
!!!IIIF:
!!!ONB-nifc:
!!!AIN: 1 canto 1 piano
!!!key: G
**kern	**kern	**dynam	**kern	**text	**text	**dynam
*part2	*part2	*part2	*part1	*part1	*part1	*part1
*staff3	*staff2	*staff2/3	*staff1	*staff1	*staff1	*
*IGacmp	*IGacmp	*	*	*	*	*
*ICklav	*ICklav	*	*ICvox	*	*	*
*Ipiano	*Ipiano	*	*Icanto	*	*	*
*I"	*I"	*	*I"	*	*	*
*I'	*I'	*	*I'	*	*	*
*clefF4	*clefG2	*	*clefG2	*	*	*
*k[f#]	*k[f#]	*	*k[f#]	*	*	*
*G:	*G:	*	*G:	*	*	*
*M4/4	*M4/4	*	*M4/4	*	*	*
*met(c)	*met(c)	*	*met(c)	*	*	*
*>[A,A]	*>[A,A]	*>[A,A]	*>[A,A]	*>[A,A]	*>[A,A]	*>[A,A]
=1	=1	=1	=1	=1	=1	=1
*^	*^	*	*	*	*	*
*>A	*>A	*>A	*>A	*>A	*>A	*>A	*>A	*>A
!!LO:TX:a:B:t=Allegro.
8rA	2GG\	8r	8ryy	p	1r	.	.	.
4B 4D/	.	4dd/	4cc#X 4f#\	.	.	.	.	.
8B 8D/	.	8dd/	8cc# 8f#\	.	.	.	.	.
8r	2C\	8ryy	8r	.	.	.	.	.
4e 4G/	.	4ff#/	4ee 4b-X\	.	.	.	.	.
8e 8G/	.	8ee/	8b-\	.	.	.	.	.
=2	=2	=2	=2	=2	=2	=2	=2	=2
*	*	*	*^	*	*	*	*	*
8rA	4GG\	8r	8ryy	4ryy	.	1r	.	.	.
8B 8D/	.	8dd/	8cc#X 8f#\	.	.	.	.	.	.
8A#XL 8C#X/	8FF#\L	8ccn/L	8g#XL 8e\	4ryy	.	.	.	.	.
8AnJ 8Cn/	8FFn\J	8b/J	8gnJ 8d#X\	.	.	.	.	.	.
4E 4GG 4CC/	2ryy	4g/	8f#\L	4B-\	.	.	.	.	.
.	.	.	8e\J	.	.	.	.	.	.
4F#: 4AA: 4DD:/	.	4f#/	8e\L	4A\	.	.	.	.	.
.	.	.	8d#\J	.	.	.	.	.	.
*	*	*	*v	*v	*	*	*	*	*
*v	*v	*	*	*	*	*	*	*
*	*v	*v	*	*	*	*	*
!!LO:LB:g=original
=3	=3	=3	=3	=3	=3	=3
*	*	*	*	*v:1	*v:2	*
!	!	!	!	!	!	!LO:DY:a
1B: 1D: 1GG:	8.g/L	mf	8.g/	A	A	mf
.	16a/Jk	.	16a/	ten	ten	.
.	8e/L	.	8e/	sa-	sa-	.
.	8f#/J	.	8f#/	-dek	-dek	.
.	8.d/L	.	4d/	ci-	ci-	.
.	16g/Jk	.	.	.	.	.
.	8dd\L	.	4d/	-chy	-chy	.
.	8ff#\J	.	.	.	.	.
=4	=4	=4	=4	=4	=4	=4
*^	*^	*	*	*	*	*
*	*	*	*^	*	*	*	*	*
4e/	4c\	8.gg/L	8.g\L	4dd\	.	8.g/	stroj-	sta-	.
.	.	16aa/Jk	16a\Jk	.	.	16a/	-ny	-nął	.
8d/L	8B\L	4ff#/	4ee 4g\	4ryy	.	8b\	jak	ca-	.
8c/J	8A\J	.	.	.	.	8cc\	na	-ły	.
!	!	!LO:N:vis=2.	!	!	!	!	!	!	!
8B/L	8G\L	2dd/	4cc\	2e\	.	4dd\	go-	w bie-	.
8A/J	8F#\J	.	.	.	.	.	.	.	.
4G/	8E\L	.	4b\	.	.	4b\	-dy,	-li,	.
.	8C\J	.	.	.	.	.	.	.	.
=5	=5	=5	=5	=5	=5	=5	=5	=5	=5
!	!	!	!	!	!	!	!	!	!LO:DY:a
4D/	4DD\	8.dd:L 8.b-X: 8.f#:/	4c:\	4ryy	f	8.dd\	Ka-	Ja-	f
.	.	16ee/Jk	.	.	.	16ee\	-żda	-kby	.
4e/	4c\	8ff#/L	2g\	4cc\	.	8ff#\	ma	go	.
.	.	8ee/J	.	.	.	8ee\	wi-	skrzy-	.
4d/	4B\	8.gg/L	.	2ryy	.	4dd\	-sie-	-dła-	.
.	.	16dd/Jk	.	.	.	.	.	.	.
!	!	!	!LO:SIC:v:s=8b\L	!	!	!	!	!	!
4e/	8A\L	4cc/	8b-\L	.	.	4cc\	-nka	-mi	.
.	8G\J	.	8a\J	.	.	.	.	.	.
*v	*v	*	*	*	*	*	*	*	*
*	*	*v	*v	*	*	*	*	*
!!LO:LB:g=original
=6	=6	=6	=6	=6	=6	=6	=6
*	*	*	*	*	*v:1	*v:2	*
4F#\	8b/L	4a 4d\	.	8b\	we-	przy-	.
!	!	!	!	!	!	!	!LO:HP:a
.	8dd/J	.	>	8dd\	-lon	-kry-	>
8E\L	(8a/L	8gL 8c\	.	8a/	pa-	-li	.
8D\J	8g/J)	8f#J 8B\	.	8g/	-nny	a-	.
4E: 4GG: 4CC:/	4a/	(8e\L	.	4a/	mło-	-nie-	]
.	.	8e-X\J	]	.	.	.	.
4F#: 4AA: 4DD:/	4d/	8c#X\L	.	4d/	-dej.	-li.	.
.	.	8cn\J)	.	.	.	.	.
*	*v	*v	*	*	*	*	*
=7	=7	=7	=7	=7	=7	=7
!	!	!	!	!	!	!LO:DY:a
2B: 2D: 2GG:\	4g/	mp	(>4g/	.	A_	mp
.	8d/L	.	8d/L	.	.	.
.	8b/J	.	8b/J	.	.	.
2G: 2BB: 2EE:/	4g/	.	4g/)	.	.	.
.	8dd\L	.	(8dd\L	.	.	.
.	8b\J	.	8b\J	.	.	.
=8	=8	=8	=8	=8	=8	=8
*	*^	*	*	*	*	*
*	*	*^	*	*	*	*	*
*^	*	*	*	*	*	*	*	*
!	!	!LO:TX:b:i:t=rit.	!	!	!	!LO:TX:a:i:t=rit.	!	!	!
2F#: 2DD:/	2ryy	4ff#:/	4e-X:\	2cc:/	.	4ff#\)	.	.	.
.	.	(8ee/L	8en\L	.	.	(8ee\L	.	.	.
.	.	8dd/J)	8f#\J	.	.	8dd\J	.	.	.
*ped	*	*	*	*	*	*	*	*	*
!	!	!	!LO:TX:t=m.s.	!	!	!	!	!	!
2B: 2D: 2GG:\	2gg>: 2dd>: 2b>: 2g>:/	2ryy	2d:\	2ryy	.	2b\)	.	.	.
*v	*v	*	*	*	*	*	*	*	*
*	*v	*v	*v	*	*	*	*	*
=:|!	=:|!	=:|!	=:|!	=:|!	=:|!	=:|!
*-	*-	*-	*-	*-	*-	*-
!!!system-decoration: s1{(s2,s3)}
!!!RDF**kern: > = above
!!!RDF**kern: < = below
!!!RDF**kern: N = linked
!!!ENC: Andrzej Gręziak
!!!EED: Katarzyna Serwa
!!!END: 2025-03-27
!!!EEV: 2025-04-01
